static/assets/head_icons_png/man/bizi/1035265.svg

<svg xmlns="http://www.w3.org/2000/svg" width="7" height="11"><g transform="translate(3.15 5.35)"><radialGradient id="a" gradientUnits="userSpaceOnUse" gradientTransform="rotate(2.106 415.994 -3.772) scale(.01362)" spreadMethod="pad" cx="0" cy="0" r="819.2" fx="0" fy="0"><stop offset="0" stop-color="#fbbd9d"/><stop offset="1" stop-color="#fedec1"/></radialGradient><path d="M1.2 2.65q-.65.9-.9 2l-.15.7H-.2l-.15-.05-.2-.9-.05-.05-.55-1.2-.3-.4-.05-.1-.25-.3-.1-.15.1-.2.1-3.2Q-1.95-3.5-3-4.05l.45-.5q.4-.5 1.8-.7 1.35-.2 2.15 0 .8.2 1.45.8l-.1.3-.3.8-.4 1.3L1.65.6q-.05.55.25 1.25l-.7.8" fill="url(#a)"/><radialGradient id="b" gradientUnits="userSpaceOnUse" gradientTransform="rotate(6.577 -71.218 96.1) scale(.01003)" spreadMethod="pad" cx="0" cy="0" r="819.2" fx="0" fy="0"><stop offset="0" stop-color="#fbbd9d"/><stop offset="1" stop-color="#fedec1"/></radialGradient><path d="M1.9 1.85l.1.2.25.5.25.3.15.1.45.8.05.2v.2L3 4.4l-.2.3-.05.05-.05.05-.1.05-.5.15h-.3l-.8.15-.6.15-.25.05.15-.7q.25-1.1.9-2l.7-.8" fill="url(#b)"/><radialGradient id="c" gradientUnits="userSpaceOnUse" gradientTransform="rotate(6.537 -92.594 -95.514) scale(.01049)" spreadMethod="pad" cx="0" cy="0" r="819.2" fx="0" fy="0"><stop offset="0" stop-color="#fbbd9d"/><stop offset="1" stop-color="#fedec1"/></radialGradient><path d="M-.35 5.3l-.7-.25-.9-.1H-2l-.55-.2h-.05l-.1-.1-.15-.1-.1-.3-.05.05-.1-.2v-.25q-.05-.65 1.1-1.4l.15-.25.1.15.25.3.05.1.3.4.55 1.2.05.05.2.9" fill="url(#c)"/><path d="M.65 5.1l.2-.25q.15-.15.45-.2h.3l.3.2.05.05-.6-.05q-.3 0-.85.4l.15-.15m-1.05.15l-.3-.15-.95-.25-.1-.1.5-.2.3.1.2.2.2.2.15.2" fill="#823909"/><radialGradient id="d" gradientUnits="userSpaceOnUse" gradientTransform="matrix(-.00414 -.00008 -.00023 .00525 3.65 .1)" spreadMethod="pad" cx="0" cy="0" r="819.2" fx="0" fy="0"><stop offset="0" stop-color="#f39b61"/><stop offset="1" stop-color="#f7bc99" stop-opacity=".314"/></radialGradient><path d="M2.5 2.95l-.6-.4V2.7l.05-.05v.2l-.05.55-.1.5h.05l-.1.1-.15.2-.1-.05-.15.1-.15.1-.1.05q.5-.75.2-1.5l-.35-.8-.1-.65v-1.8l.2-2.05.1-.05.1-.1 1.25-.9-.45 1.4L1.65.6q-.05.6.35 1.45l.25.5.25.3.15.1.45.8-.6-.8" fill="url(#d)"/><radialGradient id="e" gradientUnits="userSpaceOnUse" gradientTransform="matrix(.00217 .00005 -.00008 .00194 2.25 4.35)" spreadMethod="pad" cx="0" cy="0" r="819.2" fx="0" fy="0"><stop offset=".016" stop-color="#f29460" stop-opacity=".282"/><stop offset="1" stop-color="#f7bc99" stop-opacity="0"/></radialGradient><path d="M2.65 4.75V4.7l-.3-.3-.45-.2h-.3l.15-.2.1-.1H1.8l.1-.5.05-.55v-.2l-.05.05V2.55l.6.4.6.8.05.2v.2L3 4.4l-.2.3-.05.05h-.1" fill="url(#e)"/><radialGradient id="f" gradientUnits="userSpaceOnUse" gradientTransform="matrix(.00145 .00002 -.00006 .0013 .1 5.05)" spreadMethod="pad" cx="0" cy="0" r="819.2" fx="0" fy="0"><stop offset="0" stop-color="#f39b61"/><stop offset="1" stop-color="#f8be98"/></radialGradient><path d="M2.75 4.75l-.05.05-.1.05-.5.15h-.3l-.8.15-.6.15-.6.05-.85-.3-.9-.1H-2l-.55-.2h-.05l-.1-.1.45-.4.15-.05.25-.1.35.05.2.1.2.05h.1l.1.05.05.05.1.05q.6.45 1 .4l.6-.25.25-.2.1-.05.15-.1.15-.1.1.05h.3l.45.2.3.3v.05h.1m-2.25.5q.55-.4.85-.4l.6.05-.05-.05-.3-.2h-.3q-.3.05-.45.2l-.2.25-.15.15m-1.05-.2l-.2-.2-.2-.2-.3-.1-.5.2.1.1.95.25.3.15-.15-.2" fill="url(#f)"/><radialGradient id="g" gradientUnits="userSpaceOnUse" gradientTransform="matrix(.00293 .00005 -.00026 .00595 -2.75 .5)" spreadMethod="pad" cx="0" cy="0" r="819.2" fx="282" fy="0"><stop offset="0" stop-color="#f39b61"/><stop offset="1" stop-color="#f7bc99" stop-opacity=".314"/></radialGradient><path d="M-2.7 4.65l-.15-.1-.1-.3-.05.05-.1-.2v-.25q-.05-.65 1.1-1.4l.3-.5q.4-.8.4-1.4l-.15-2.65-.4-1.4 1.25.9.1.1.05.1.1 2.1v.1L-.4.15l.05 1.4-.4.85-.3.45-.15.45v.6l.45.55-.1-.05-.05-.05-.1-.05h-.1l-.2-.05q-.6-.55-.45-1.15l.05-.6h-.1v-.05l-.65.45-.15.7.35.65-.45.4" fill="url(#g)"/><radialGradient id="h" gradientUnits="userSpaceOnUse" gradientTransform="matrix(.00253 .00064 -.00053 .00156 -2.8 4.1)" spreadMethod="pad" cx="0" cy="0" r="819.2" fx="0" fy="0"><stop offset=".016" stop-color="#f29460" stop-opacity=".282"/><stop offset="1" stop-color="#f7bc99" stop-opacity="0"/></radialGradient><path d="M-1.5 4.15l-.35-.05-.25.1-.15.05-.35-.65.15-.7.65-.45v.05h.1l-.05.6q-.15.6.45 1.15l-.2-.1M-1.85 3l-.05.1.05-.1" fill="url(#h)"/><radialGradient id="i" gradientUnits="userSpaceOnUse" gradientTransform="matrix(.00403 .00006 -.0003 .00716 -2.6 -.55)" spreadMethod="pad" cx="0" cy="0" r="819.2" fx="93" fy="0"><stop offset="0" stop-color="#d66d3e" stop-opacity=".812"/><stop offset="1" stop-color="#ffdec2" stop-opacity="0"/></radialGradient><path d="M-.5 1.7l-1.25 1.2.1-4.1L-3-4.05q2.35.95 2.55 2.2L-.5 1.7" fill="url(#i)"/><radialGradient id="j" gradientUnits="userSpaceOnUse" gradientTransform="matrix(.001 .00005 -.00005 .00098 -.05 3.5)" spreadMethod="pad" cx="0" cy="0" r="819.2" fx="0" fy="0"><stop offset="0" stop-color="#fff" stop-opacity=".78"/><stop offset="1" stop-color="#fff" stop-opacity="0"/></radialGradient><path d="M.6 3.05l.15.5-.2.6L0 4.3q-.35 0-.55-.2l-.25-.6.3-.5.55-.25.55.3" fill="url(#j)"/><radialGradient id="k" gradientUnits="userSpaceOnUse" gradientTransform="matrix(.00119 .00006 -.00012 .0028 0 .9)" spreadMethod="pad" cx="0" cy="0" r="819.2" fx="0" fy="0"><stop offset="0" stop-color="#fff" stop-opacity=".69"/><stop offset="1" stop-color="#fff" stop-opacity="0"/></radialGradient><path d="M.5-.65v1.6l-.15 1.6q-.2.6-.45.6t-.3-.65L-.6.9l.35-1.6q.1-.7.35-.7l.4.75" fill="url(#k)"/></g></svg>

<?xml version="1.0" encoding="utf-8"?>
<svg version="1.1" id="Layer_1"
xmlns="http://www.w3.org/2000/svg"
xmlns:xlink="http://www.w3.org/1999/xlink"
xmlns:author="http://www.sothink.com"
width="7px" height="11px"
xml:space="preserve">
<g id="485" transform="matrix(1, 0, 0, 1, 3.15, 5.35)">
<radialGradient
id="RadialGradID_4153" gradientUnits="userSpaceOnUse" gradientTransform="matrix(0.0136108, 0.000473022, -0.000473022, 0.0136108, 0.15, -14.45)" spreadMethod ="pad" cx="0" cy="0" r="819.2" fx="0" fy="0" >
<stop  offset="0"  style="stop-color:#FBBD9D;stop-opacity:1" />
<stop  offset="1"  style="stop-color:#FEDEC1;stop-opacity:1" />
</radialGradient>
<path style="fill:url(#RadialGradID_4153) " d="M1.2,2.65Q0.55 3.55 0.3 4.65L0.15 5.35L-0.2 5.35L-0.35 5.3L-0.55 4.4L-0.6 4.35L-1.15 3.15L-1.45 2.75L-1.5 2.65L-1.75 2.35L-1.85 2.2L-1.75 2L-1.65 -1.2Q-1.95 -3.5 -3 -4.05L-2.55 -4.55Q-2.15 -5.05 -0.75 -5.25Q0.6 -5.45 1.4 -5.25Q2.2 -5.05 2.85 -4.45L2.75 -4.15L2.45 -3.35L2.05 -2.05L1.65 0.6Q1.6 1.15 1.9 1.85L1.2 2.65" />
<radialGradient
id="RadialGradID_4154" gradientUnits="userSpaceOnUse" gradientTransform="matrix(0.00996399, 0.00112915, -0.00112915, 0.00996399, 10.35, 8.65)" spreadMethod ="pad" cx="0" cy="0" r="819.2" fx="0" fy="0" >
<stop  offset="0"  style="stop-color:#FBBD9D;stop-opacity:1" />
<stop  offset="1"  style="stop-color:#FEDEC1;stop-opacity:1" />
</radialGradient>
<path style="fill:url(#RadialGradID_4154) " d="M1.9,1.85L2 2.05L2.25 2.55L2.5 2.85L2.65 2.95L3.1 3.75L3.15 3.95L3.15 4.15L3 4.4L2.8 4.7L2.75 4.75L2.7 4.8L2.6 4.85L2.1 5L1.8 5L1 5.15L0.4 5.3L0.15 5.35L0.3 4.65Q0.55 3.55 1.2 2.65L1.9 1.85" />
<radialGradient
id="RadialGradID_4155" gradientUnits="userSpaceOnUse" gradientTransform="matrix(0.0104218, 0.00117493, -0.00117493, 0.0104218, -11.3, 9.75)" spreadMethod ="pad" cx="0" cy="0" r="819.2" fx="0" fy="0" >
<stop  offset="0"  style="stop-color:#FBBD9D;stop-opacity:1" />
<stop  offset="1"  style="stop-color:#FEDEC1;stop-opacity:1" />
</radialGradient>
<path style="fill:url(#RadialGradID_4155) " d="M-0.35,5.3L-1.05 5.05L-1.95 4.95L-2 4.95L-2.55 4.75L-2.6 4.75L-2.7 4.65L-2.85 4.55L-2.95 4.25L-3 4.3L-3.1 4.1L-3.1 3.85Q-3.15 3.2 -2 2.45L-1.85 2.2L-1.75 2.35L-1.5 2.65L-1.45 2.75L-1.15 3.15L-0.6 4.35L-0.55 4.4L-0.35 5.3" />
<path style="fill:#823909;fill-opacity:1" d="M0.65,5.1L0.85 4.85Q1 4.7 1.3 4.65L1.45 4.65L1.6 4.65L1.9 4.85L1.95 4.9L1.35 4.85Q1.05 4.85 0.5 5.25L0.65 5.1M-0.4,5.25L-0.7 5.1L-1.65 4.85L-1.75 4.75L-1.25 4.55L-0.95 4.65L-0.75 4.85L-0.55 5.05L-0.4 5.25" />
<radialGradient
id="RadialGradID_4156" gradientUnits="userSpaceOnUse" gradientTransform="matrix(-0.00413513, -7.62939e-005, -0.000228882, 0.00524902, 3.65, 0.1)" spreadMethod ="pad" cx="0" cy="0" r="819.2" fx="0" fy="0" >
<stop  offset="0"  style="stop-color:#F39B61;stop-opacity:1" />
<stop  offset="1"  style="stop-color:#F7BC99;stop-opacity:0.313725" />
</radialGradient>
<path style="fill:url(#RadialGradID_4156) " d="M2.5,2.95L1.9 2.55L1.9 2.6L1.9 2.65L1.9 2.7L1.95 2.65L1.95 2.75L1.95 2.8L1.95 2.85L1.9 3.4L1.8 3.9L1.85 3.9L1.75 4L1.6 4.2L1.5 4.15L1.35 4.25L1.2 4.35L1.1 4.4Q1.6 3.65 1.3 2.9L0.95 2.1L0.85 1.45L0.85 -0.35L1.05 -2.4L1.15 -2.45L1.25 -2.55L2.5 -3.45L2.05 -2.05L1.65 0.6Q1.6 1.2 2 2.05L2.25 2.55L2.5 2.85L2.65 2.95L3.1 3.75L2.5 2.95" />
<radialGradient
id="RadialGradID_4157" gradientUnits="userSpaceOnUse" gradientTransform="matrix(0.00216675, 4.57764e-005, -7.62939e-005, 0.00193787, 2.25, 4.35)" spreadMethod ="pad" cx="0" cy="0" r="819.2" fx="0" fy="0" >
<stop  offset="0.0156863"  style="stop-color:#F29460;stop-opacity:0.282353" />
<stop  offset="1"  style="stop-color:#F7BC99;stop-opacity:0" />
</radialGradient>
<path style="fill:url(#RadialGradID_4157) " d="M2.65,4.75L2.65 4.7L2.35 4.4L1.9 4.2L1.6 4.2L1.75 4L1.85 3.9L1.8 3.9L1.9 3.4L1.95 2.85L1.95 2.8L1.95 2.75L1.95 2.65L1.9 2.7L1.9 2.65L1.9 2.6L1.9 2.55L2.5 2.95L3.1 3.75L3.15 3.95L3.15 4.15L3 4.4L2.8 4.7L2.75 4.75L2.65 4.75" />
<radialGradient
id="RadialGradID_4158" gradientUnits="userSpaceOnUse" gradientTransform="matrix(0.00144958, 1.52588e-005, -6.10352e-005, 0.001297, 0.1, 5.05)" spreadMethod ="pad" cx="0" cy="0" r="819.2" fx="0" fy="0" >
<stop  offset="0"  style="stop-color:#F39B61;stop-opacity:1" />
<stop  offset="1"  style="stop-color:#F8BE98;stop-opacity:1" />
</radialGradient>
<path style="fill:url(#RadialGradID_4158) " d="M2.75,4.75L2.7 4.8L2.6 4.85L2.1 5L1.8 5L1 5.15L0.4 5.3L-0.2 5.35L-1.05 5.05L-1.95 4.95L-2 4.95L-2.55 4.75L-2.6 4.75L-2.7 4.65L-2.25 4.25L-2.1 4.2L-1.85 4.1L-1.5 4.15L-1.3 4.25L-1.1 4.3L-1 4.3L-0.9 4.35L-0.85 4.4L-0.75 4.45Q-0.15 4.9 0.25 4.85L0.85 4.6L1.1 4.4L1.2 4.35L1.35 4.25L1.5 4.15L1.6 4.2L1.9 4.2L2.35 4.4L2.65 4.7L2.65 4.75L2.75 4.75M0.5,5.25Q1.05 4.85 1.35 4.85L1.95 4.9L1.9 4.85L1.6 4.65L1.45 4.65L1.3 4.65Q1 4.7 0.85 4.85L0.65 5.1L0.5 5.25M-0.55,5.05L-0.75 4.85L-0.95 4.65L-1.25 4.55L-1.75 4.75L-1.65 4.85L-0.7 5.1L-0.4 5.25L-0.55 5.05" />
<radialGradient
id="RadialGradID_4159" gradientUnits="userSpaceOnUse" gradientTransform="matrix(0.00292969, 4.57764e-005, -0.000259399, 0.00595093, -2.75, 0.5)" spreadMethod ="pad" cx="0" cy="0" r="819.2" fx="282" fy="0" >
<stop  offset="0"  style="stop-color:#F39B61;stop-opacity:1" />
<stop  offset="1"  style="stop-color:#F7BC99;stop-opacity:0.313725" />
</radialGradient>
<path style="fill:url(#RadialGradID_4159) " d="M-2.7,4.65L-2.85 4.55L-2.95 4.25L-3 4.3L-3.1 4.1L-3.1 3.85Q-3.15 3.2 -2 2.45L-1.7 1.95Q-1.3 1.15 -1.3 0.55L-1.45 -2.1L-1.85 -3.5L-0.6 -2.6L-0.5 -2.5L-0.45 -2.4L-0.35 -0.3L-0.35 -0.2L-0.4 0.15L-0.35 1.55L-0.75 2.4L-1.05 2.85L-1.2 3.3L-1.2 3.9L-0.75 4.45L-0.85 4.4L-0.9 4.35L-1 4.3L-1.1 4.3L-1.3 4.25Q-1.9 3.7 -1.75 3.1L-1.7 2.5L-1.8 2.5L-1.8 2.45L-2.45 2.9L-2.6 3.6L-2.25 4.25L-2.7 4.65" />
<radialGradient
id="RadialGradID_4160" gradientUnits="userSpaceOnUse" gradientTransform="matrix(0.00253296, 0.000640869, -0.000534058, 0.0015564, -2.8, 4.1)" spreadMethod ="pad" cx="0" cy="0" r="819.2" fx="0" fy="0" >
<stop  offset="0.0156863"  style="stop-color:#F29460;stop-opacity:0.282353" />
<stop  offset="1"  style="stop-color:#F7BC99;stop-opacity:0" />
</radialGradient>
<path style="fill:url(#RadialGradID_4160) " d="M-1.5,4.15L-1.85 4.1L-2.1 4.2L-2.25 4.25L-2.6 3.6L-2.45 2.9L-1.8 2.45L-1.8 2.5L-1.7 2.5L-1.75 3.1Q-1.9 3.7 -1.3 4.25L-1.5 4.15M-1.85,3L-1.9 3.1L-1.85 3" />
<radialGradient
id="RadialGradID_4161" gradientUnits="userSpaceOnUse" gradientTransform="matrix(0.00402832, 6.10352e-005, -0.000305176, 0.00715637, -2.6, -0.55)" spreadMethod ="pad" cx="0" cy="0" r="819.2" fx="93" fy="0" >
<stop  offset="0"  style="stop-color:#D66D3E;stop-opacity:0.811765" />
<stop  offset="1"  style="stop-color:#FFDEC2;stop-opacity:0" />
</radialGradient>
<path style="fill:url(#RadialGradID_4161) " d="M-0.5,1.7L-1.75 2.9L-1.65 -1.2L-3 -4.05Q-0.65 -3.1 -0.45 -1.85L-0.5 1.7" />
<radialGradient
id="RadialGradID_4162" gradientUnits="userSpaceOnUse" gradientTransform="matrix(0.000991821, 4.57764e-005, -4.57764e-005, 0.000976563, -0.05, 3.5)" spreadMethod ="pad" cx="0" cy="0" r="819.2" fx="0" fy="0" >
<stop  offset="0"  style="stop-color:#FFFFFF;stop-opacity:0.780392" />
<stop  offset="1"  style="stop-color:#FFFFFF;stop-opacity:0" />
</radialGradient>
<path style="fill:url(#RadialGradID_4162) " d="M0.6,3.05L0.75 3.55L0.55 4.15L0 4.3Q-0.35 4.3 -0.55 4.1L-0.8 3.5L-0.5 3L0.05 2.75L0.6 3.05" />
<radialGradient
id="RadialGradID_4163" gradientUnits="userSpaceOnUse" gradientTransform="matrix(0.00119019, 6.10352e-005, -0.00012207, 0.00279236, 0, 0.9)" spreadMethod ="pad" cx="0" cy="0" r="819.2" fx="0" fy="0" >
<stop  offset="0"  style="stop-color:#FFFFFF;stop-opacity:0.690196" />
<stop  offset="1"  style="stop-color:#FFFFFF;stop-opacity:0" />
</radialGradient>
<path style="fill:url(#RadialGradID_4163) " d="M0.5,-0.65L0.5 0.95L0.35 2.55Q0.15 3.15 -0.1 3.15Q-0.35 3.15 -0.4 2.5L-0.6 0.9L-0.25 -0.7Q-0.15 -1.4 0.1 -1.4L0.5 -0.65" />
</g>
</svg>
